www/assets/icons/stay_current_portrait.svg

<svg width="24" height="24" viewBox="0 0 24 24" xmlns="http://www.w3.org/2000/svg" fill='currentColor'><path d="M16.995 1.01L6.995 1C5.895 1 5.005 1.9 5.005 3V21C5.005 22.1 5.895 23 6.995 23H16.995C18.095 23 18.995 22.1 18.995 21V3C18.995 1.9 18.095 1.01 16.995 1.01ZM16.995 19H6.995V5H16.995V19Z"/></svg>

<svg xmlns="http://www.w3.org/2000/svg" width="24" height="24" viewBox="0 0 24 24" fill='currentColor'><path d="m16.995 1.01-10-.01c-1.1 0-1.99.9-1.99 2v18c0 1.1.89 2 1.99 2h10c1.1 0 2-.9 2-2V3c0-1.1-.9-1.99-2-1.99m0 17.99h-10V5h10z"/></svg>
